gr/document-word.svg

<svg xmlns="http://www.w3.org/2000/svg" viewBox="0 0 24 24" height="1em" width="1em">
  <path fill="none" stroke="#000" stroke-width="2" d="M4.99787498,8.99999999 L4.99787498,0.999999992 L19.4999998,0.999999992 L22.9999998,4.50000005 L23,23 L4,23 M18,1 L18,6 L23,6 M14,12 L12.5,18.75 L12.25,18.75 L9.5,12 L9,12 L6.25,18.75 L6,18.75 L4.5,12 L4,12 L6,19 L6.5,19 L9,12.5 L9.5,12.5 L12,19 L12.5,19 L14.5,12 L14,12 Z"/>
</svg>

<svg xmlns="http://www.w3.org/2000/svg" viewBox="0 0 24 24" height="1em" width="1em">
  <path fill="none" stroke="#000" stroke-width="2" d="M4.998 9V1H19.5L23 4.5V23H4M18 1v5h5m-9 6-1.5 6.75h-.25L9.5 12H9l-2.75 6.75H6L4.5 12H4l2 7h.5L9 12.5h.5L12 19h.5l2-7H14Z"/>
</svg>
